Newaita-dark/.DP/scalable/mic-volume-muted.svg

<?xml version="1.0" encoding="UTF-8"?>
<svg xmlns="http://www.w3.org/2000/svg" xmlns:xlink="http://www.w3.org/1999/xlink" width="512pt" height="512pt" viewBox="0 0 512 512" version="1.1">
<g id="surface1">
<path style=" stroke:none;fill-rule:nonzero;fill:rgb(74.117649%,74.117649%,74.117649%);fill-opacity:1;" d="M 169.347656 448.542969 L 338.699219 448.542969 L 338.699219 490.878906 L 169.347656 490.878906 Z M 169.347656 448.542969 "/>
<path style=" stroke:none;fill-rule:nonzero;fill:rgb(74.117649%,74.117649%,74.117649%);fill-opacity:1;" d="M 127.011719 258.023438 L 127.011719 395.621094 C 127.011719 413.210938 141.175781 427.375 158.765625 427.375 L 349.285156 427.375 C 366.875 427.375 381.035156 413.210938 381.035156 395.621094 L 381.035156 258.023438 L 353.25 258.023438 C 338.292969 298.285156 299.617188 326.824219 254.023438 326.824219 C 208.433594 326.824219 169.753906 298.285156 154.796875 258.023438 Z M 127.011719 258.023438 "/>
<path style=" stroke:none;fill-rule:nonzero;fill:rgb(74.117649%,74.117649%,74.117649%);fill-opacity:1;" d="M 158.765625 25.167969 C 141.175781 25.167969 127.011719 39.332031 127.011719 56.921875 L 127.011719 183.933594 L 154.800781 183.933594 C 169.753906 143.675781 208.433594 115.136719 254.023438 115.136719 C 299.617188 115.136719 338.292969 143.675781 353.25 183.933594 L 381.035156 183.933594 L 381.035156 56.921875 C 381.035156 39.332031 366.875 25.167969 349.285156 25.167969 Z M 158.765625 25.167969 "/>
<path style=" stroke:none;fill-rule:nonzero;fill:rgb(74.117649%,74.117649%,74.117649%);fill-opacity:1;" d="M 127.011719 205.101562 C 121.148438 205.101562 116.429688 209.824219 116.429688 215.6875 L 116.429688 226.269531 C 116.429688 232.136719 121.148438 236.855469 127.011719 236.855469 L 149.355469 236.855469 C 148.582031 231.679688 148.179688 226.378906 148.179688 220.980469 C 148.179688 215.582031 148.582031 210.28125 149.355469 205.101562 Z M 358.695312 205.101562 C 359.464844 210.28125 359.867188 215.582031 359.867188 220.980469 C 359.867188 226.378906 359.464844 231.679688 358.695312 236.855469 L 381.035156 236.855469 C 386.898438 236.855469 391.621094 232.136719 391.621094 226.269531 L 391.621094 215.6875 C 391.621094 209.824219 386.898438 205.101562 381.035156 205.101562 Z M 358.695312 205.101562 "/>
<path style=" stroke:none;fill-rule:nonzero;fill:rgb(93.725491%,32.549021%,31.37255%);fill-opacity:1;" d="M 190.40625 187.300781 L 224.085938 220.980469 L 190.40625 254.660156 L 220.34375 284.59375 L 254.023438 250.917969 L 287.703125 284.59375 L 317.640625 254.660156 L 283.960938 220.980469 L 317.640625 187.300781 L 287.703125 157.363281 L 254.023438 191.042969 L 220.34375 157.363281 Z M 190.40625 187.300781 "/>
</g>
</svg>

<svg xmlns="http://www.w3.org/2000/svg" width="512pt" height="512pt" viewBox="0 0 512 512"><path d="M169.348 448.543h169.351v42.336H169.348zm0 0M127.012 258.023v137.598c0 17.59 14.164 31.754 31.754 31.754h190.52c17.589 0 31.75-14.164 31.75-31.754V258.023H353.25c-14.957 40.262-53.633 68.801-99.227 68.801-45.59 0-84.27-28.539-99.226-68.8zm0 0M158.766 25.168c-17.59 0-31.754 14.164-31.754 31.754v127.012H154.8c14.953-40.258 53.633-68.797 99.222-68.797 45.594 0 84.27 28.539 99.227 68.797h27.785V56.922c0-17.59-14.16-31.754-31.75-31.754zm0 0M127.012 205.102a10.561 10.561 0 0 0-10.582 10.585v10.583a10.559 10.559 0 0 0 10.582 10.585h22.343a107.363 107.363 0 0 1-1.175-15.875c0-5.398.402-10.699 1.175-15.878zm231.683 0a107.99 107.99 0 0 1 1.172 15.878c0 5.399-.402 10.7-1.172 15.875h22.34a10.562 10.562 0 0 0 10.586-10.585v-10.583a10.564 10.564 0 0 0-10.586-10.585zm0 0" fill="#bdbdbd"/><path d="M190.406 187.3l33.68 33.68-33.68 33.68 29.938 29.934 33.68-33.676 33.68 33.676 29.937-29.934-33.68-33.68 33.68-33.68-29.938-29.937-33.68 33.68-33.68-33.68zm0 0" fill="#ef5350"/></svg>
